app/assets/images/graphics/icon-grip.svg

<svg width="12" height="32" version="1.1" viewBox="0 0 12 32" xmlns="http://www.w3.org/2000/svg"><g><path d="m0 2h4v4h-4v-4z"/><path d="m0 10h4v4h-4v-4z"/><path d="m0 18h4v4h-4v-4z"/><path d="m0 26h4v4h-4v-4z"/><path d="m8 2h4v4h-4v-4z"/><path d="m8 10h4v4h-4v-4z"/><path d="m8 18h4v4h-4v-4z"/><path d="m8 26h4v4h-4v-4z"/></g></svg>

<svg width="12" height="32" xmlns="http://www.w3.org/2000/svg"><path d="M0 2h4v4H0V2zm0 8h4v4H0v-4zm0 8h4v4H0v-4zm0 8h4v4H0v-4zM8 2h4v4H8V2zm0 8h4v4H8v-4zm0 8h4v4H8v-4zm0 8h4v4H8v-4z"/></svg>
